X:0050
T:St. Patricks Day in the morning.
M:6/8
L:1/8
Q:3/8=120
I: :: ::
Z:Jack Campin * www.campin.me.uk * 2009
K:G
D|GAG GAB|ded dBG|BAB AFD|EFE E2
D|GAG GAB|ded dBG|BAB AFD|E3  G2:|
e|def g2e|fed edB|def g2e|afd e2f|def g2e|f2d efg|
  dBG GAB|ded dBG|BAB AFD|EFE E2
D|GAG GAB|ded dBG|BAB AFD|E3  G2:|
<end>
<start>
